X:338
T:Of Aw the Airts the Wind Can Blow
R:Strathspey
M:C
L:1/8
K:A
|:"A" A<A A>A "F#m" A>EA>f | "D" e>cB>A "E7" F2 F>E | "A" A<A A>A "F#m"A>EA>f | "Bm" e f/g/a>c "E7" e2 ef |!
"A" e>fa>c "A/C#" e>cB>A | "D" B>ec>A "E" F2 F>E | "A'" A<A  A>A  A>E "F#m7'" A>f | "D" e<c "E" B>c "A" A3 E  |!
|"A" C>EA>E F>EA>E | c>e d/c/B/A/ F2 F<A | "A" C>EA>E "F#m" F>EA>E |"Bm" c>d e/f/g/a/ "E7" e2 ef/g/ |!
"A" a>gf>e "E" f>ed>c | "D" B>e d/c/B/A/ "E7" F2 F>E |"A" A<A "Bm" A>A "C#m" A>E "D" A>f |1 "E" e<c "E7" B>c "A" A3 E :|2 "E"e<c "E7" B>c "A7" A2   ||
